X:6380
T:Sweet Joan
O:england
S:Digital Tradition, swtjoan
B:From The Seeds of Love, Sedley
M:4/4
L:1/8
Q:2/4=100
W:Come listen a while and I'll sing you a song
W:Of three merry gentlemen riding along,
W:They met with Sweet Joan and to her did say
W:I'm afraid this cold morning will do you some harm.
W:
W:O no, kind sir, the maiden said
W:This cold morning will do me no harm.
W:There's one thing I crave lies betwixt your legs
W:If you give me that it will keep me warm.
W:
W:He got off his horse - she mounted it quick
W:Looking the gentleman hard in the face,
W:Says, "You knew not my meaning, you wrong understand me"
W:And away she went galloping down the green lane.
K:C
A,2|"Am"C2CD E2DC|DCA,2 A,3A,|"G"G2GG G2^FD|"Am"A2AG A2E2|
"Am"A2AG A-Bc2|"C"E2ED C2CD|E2EE EDC2|"F"DCA,2 "Am"A,2||


